X: 43434
T: Y Lancers
R: jig
M: 6/8
K: Dmajor
A|ded dcB|A2 F D2 E|F2 D A2 G|FED E2 A|
d2 d dcB|A2 F D2 E|FGF EDE|F2 E D2:|
A|ded dcB|c2 d e3|f2 d d2 B|c2 d e3|
f2 d f2 d|c2 d e2 f|Bcd e2 e|dcB A2 B|
ded dcB|A2 F D2 E|F2 D A2 G|FED E2 A|
d2 d dcB|A2 F D2 E|FGF EDE|F2 E D2||

